X: 32458
T: Pissing On The Compost
R: reel
M: 4/4
K: Dmajor
d2 AA A2 F2|GF E2 D4|d2 AA A2 F2|G2 A2 B2 c2|
d2 AA A2 F2|GF E2 D4|d2 dA d2 a2|gf e2 d4:|
f2 af bfaf|g2 f2 e2 d2|f2 af bfaf|gfed Bcde|
f2 af bfaf|gfed BcdB|ABAF GBAG|FEDC D4:|

